X: 4
T:Cream Pot, The (The Kern Staff)
M:6/8
L:1/8
S:William Vickers c1770
K:G
||:G2 A B2 c | dBd efg | G2 A B2 c | dBG AFD | E2 C CEG | F2 D D2 c!
BdB  cAF | G3 A3 :||:K:D d2 e f2 g | afd ecA | faf ege | fdf ecA | B2 
G GBd |! c2 A A2 g | faf ge c |1(d3 d2) A :|2 d3 =c3 ||: K:G B2 g gdB 
| B2 g gdB |! A2 A ABc | BAG AFD | E2 C CEG | F2 D D2 c | BdB c AF | 
(G3 G2) :||

% Output from ABC2Win  Version 2.1 h on 24/01/2001


